media/img/firefox/welcome/page20-21/add-ons.svg

<svg width="120" height="80" viewBox="0 0 120 80" xmlns="http://www.w3.org/2000/svg" xmlns:xlink="http://www.w3.org/1999/xlink">
    <path id="Path" fill="#000000" stroke="none" d="M 82.839401 38.227299 C 81.0261 38.225899 79.261902 38.816898 77.815399 39.9105 L 77.815399 28.1217 C 77.815399 27.234802 77.640198 26.356701 77.299896 25.537701 C 76.959503 24.7188 76.460701 23.975098 75.8321 23.349503 C 75.203499 22.7239 74.457497 22.2286 73.637001 21.8922 C 72.816399 21.555702 71.9375 21.384701 71.050598 21.388901 L 59.255402 21.388901 C 60.197403 20.1394 60.772499 18.6521 60.916 17.094002 C 61.059402 15.535797 60.765701 13.968498 60.067703 12.568001 C 59.369698 11.167603 58.294998 9.989456 56.9645 9.16597 C 55.634003 8.342491 54.100201 7.90625 52.5354 7.90625 C 50.970699 7.90625 49.436901 8.342491 48.1063 9.16597 C 46.775799 9.989456 45.701199 11.167603 45.003201 12.568001 C 44.305199 13.968498 44.011398 15.535797 44.1549 17.094002 C 44.298401 18.6521 44.873402 20.1394 45.815399 21.388901 L 34.013802 21.388901 C 33.127499 21.385498 32.249199 21.557198 31.429401 21.893997 C 30.6096 22.2309 29.864399 22.726299 29.2365 23.351799 C 28.608501 23.977303 28.110298 24.720699 27.770401 25.5392 C 27.430401 26.3577 27.255402 27.235298 27.255402 28.1217 L 27.255402 38.3937 C 27.809601 38.282902 28.373402 38.2271 28.938599 38.227299 C 31.1707 38.227299 33.311298 39.113998 34.889599 40.692299 C 36.467899 42.270599 37.354599 44.411201 37.354599 46.643299 C 37.354599 48.875301 36.467899 51.015999 34.889599 52.594299 C 33.311298 54.1726 31.1707 55.059299 28.938599 55.059299 C 28.373402 55.059399 27.809601 55.0037 27.255402 54.892899 L 27.255402 65.132896 C 27.251999 66.021599 27.4245 66.902298 27.762901 67.724197 C 28.1012 68.545998 28.598801 69.292801 29.227001 69.9216 C 29.855099 70.550301 30.601501 71.048599 31.423 71.387802 C 32.244499 71.726898 33.125 71.9002 34.013802 71.897697 L 44.253799 71.897697 C 44.143002 71.343498 44.087299 70.779701 44.087399 70.2145 C 44.087399 67.982399 44.974098 65.841797 46.552399 64.263496 C 48.130699 62.6852 50.2714 61.7985 52.503399 61.7985 C 54.7355 61.7985 56.876099 62.6852 58.454399 64.263496 C 60.0327 65.841797 60.919403 67.982399 60.919403 70.2145 C 60.919601 70.779701 60.8638 71.343498 60.752998 71.897697 L 70.992996 71.897697 C 71.885002 71.908699 72.770302 71.7425 73.597603 71.408798 C 74.424797 71.074997 75.177597 70.580399 75.812202 69.953499 C 76.446899 69.326599 76.950699 68.579903 77.294601 67.756798 C 77.638496 66.933701 77.815498 66.050499 77.815399 65.158501 L 77.815399 53.376099 C 78.882202 54.176201 80.123901 54.7113 81.438202 54.937401 C 82.752403 55.163502 84.101501 55.0741 85.374397 54.676498 C 86.647301 54.278801 87.807404 53.5844 88.7593 52.650501 C 89.711098 51.716499 90.427399 50.569698 90.849098 49.3046 C 91.271004 48.039501 91.386002 46.692299 91.184998 45.3741 C 90.983704 44.055801 90.472198 42.804199 89.692398 41.722301 C 88.912697 40.640499 87.8871 39.759499 86.699997 39.151798 C 85.513 38.544201 84.198601 38.227299 82.864998 38.227299 L 82.839401 38.227299 Z M 82.839401 52.499298 C 81.571198 52.506302 80.336098 52.094601 79.325798 51.328098 C 78.945396 51.050098 78.495697 50.8825 78.026199 50.8437 C 77.556702 50.804901 77.085602 50.8964 76.664703 51.108101 C 76.243896 51.319901 75.889603 51.6437 75.640999 52.0438 C 75.392303 52.444 75.258904 52.904999 75.255402 53.376099 L 75.255402 65.158501 C 75.2537 66.266296 74.812897 67.3284 74.029503 68.111702 C 73.246101 68.895103 72.184097 69.335999 71.076202 69.3377 L 63.479401 69.3377 C 63.268402 66.579697 62.023804 64.003098 59.994598 62.123299 C 57.9655 60.2435 55.301498 59.1992 52.5354 59.1992 C 49.769402 59.1992 47.105301 60.2435 45.076199 62.123299 C 43.0471 64.003098 41.802502 66.579697 41.5914 69.3377 L 34.013802 69.3377 C 33.4636 69.339401 32.918499 69.232498 32.409599 69.023399 C 31.9007 68.814201 31.438099 68.506699 31.0481 68.1185 C 30.658199 67.7304 30.348598 67.269096 30.1371 66.7612 C 29.925598 66.253304 29.816299 65.708702 29.815399 65.158501 L 29.815399 57.587299 C 32.573399 57.376202 35.150002 56.131599 37.0298 54.102501 C 38.9095 52.073399 39.953899 49.409302 39.953899 46.643299 C 39.953899 43.877201 38.9095 41.2132 37.0298 39.183998 C 35.150002 37.1549 32.573399 35.910301 29.815399 35.699299 L 29.815399 28.1217 C 29.817101 27.015499 30.257301 25.955101 31.039501 25.172897 C 31.821701 24.390701 32.882 23.9506 33.988201 23.948898 L 45.815399 23.948898 C 46.290298 23.947701 46.755501 23.8144 47.159 23.563999 C 47.5625 23.313599 47.888302 22.955902 48.100201 22.530899 C 48.312 22.1059 48.401501 21.630302 48.358501 21.157402 C 48.315601 20.684402 48.141899 20.2328 47.856998 19.852898 C 47.203098 18.982002 46.804798 17.946301 46.706501 16.861702 C 46.608299 15.777199 46.814098 14.686699 47.3008 13.712601 C 47.787601 12.738403 48.535999 11.919098 49.462299 11.346397 C 50.388599 10.773804 51.456001 10.470497 52.544998 10.470497 C 53.633999 10.470497 54.7015 10.773804 55.627701 11.346397 C 56.554001 11.919098 57.302498 12.738403 57.7892 13.712601 C 58.276001 14.686699 58.481796 15.777199 58.383499 16.861702 C 58.285301 17.946301 57.886902 18.982002 57.233002 19.852898 C 56.9478 20.2332 56.774101 20.685501 56.7314 21.159 C 56.688698 21.6325 56.778702 22.108498 56.991302 22.533699 C 57.203903 22.959 57.530701 23.316601 57.935097 23.566498 C 58.3396 23.816498 58.805603 23.948898 59.280998 23.948898 L 71.050598 23.948898 C 71.6008 23.946301 72.146103 24.052299 72.655296 24.2607 C 73.164497 24.469101 73.627602 24.775902 74.018204 25.163498 C 74.408699 25.551003 74.719002 26.011803 74.931297 26.519402 C 75.1436 27.027 75.2537 27.571503 75.255402 28.1217 L 75.255402 39.9105 C 75.256302 40.384998 75.389 40.849899 75.638702 41.253399 C 75.888496 41.656799 76.245499 41.982899 76.6698 42.195301 C 77.0243 42.377102 77.417099 42.4715 77.815399 42.470501 C 78.370102 42.468601 78.909103 42.286701 79.351402 41.952099 C 80.094101 41.397202 80.957901 41.026501 81.871803 40.870701 C 82.785698 40.714802 83.723503 40.778099 84.608101 41.055401 C 85.492798 41.332699 86.298897 41.816101 86.960297 42.465801 C 87.621597 43.115501 88.119301 43.912899 88.4123 44.7925 C 88.705299 45.672001 88.785301 46.608601 88.645699 47.525101 C 88.506104 48.441601 88.150902 49.311901 87.609299 50.064301 C 87.067703 50.8167 86.355202 51.429798 85.530403 51.853199 C 84.705597 52.276501 83.792099 52.497898 82.864998 52.499298 L 82.839401 52.499298 Z"/>
</svg>

<svg width="120" height="80" xmlns="http://www.w3.org/2000/svg"><path d="M82.84 38.227a8.32 8.32 0 0 0-5.025 1.684V28.12a6.734 6.734 0 0 0-6.764-6.732H59.255a8.417 8.417 0 1 0-13.44 0H34.014a6.733 6.733 0 0 0-6.759 6.733v10.272a8.57 8.57 0 0 1 1.684-.167 8.416 8.416 0 1 1 0 16.832 8.578 8.578 0 0 1-1.684-.166v10.24a6.739 6.739 0 0 0 6.759 6.765h10.24a8.578 8.578 0 0 1-.167-1.683 8.416 8.416 0 1 1 16.832 0 8.57 8.57 0 0 1-.166 1.683h10.24a6.74 6.74 0 0 0 6.822-6.74V53.377a8.416 8.416 0 1 0 5.05-15.149h-.026Zm0 14.272a5.76 5.76 0 0 1-3.514-1.17 2.56 2.56 0 0 0-4.07 2.047V65.16a4.185 4.185 0 0 1-4.18 4.179H63.48a10.976 10.976 0 0 0-21.888 0h-7.577a4.187 4.187 0 0 1-4.199-4.18v-7.57a10.976 10.976 0 0 0 0-21.889v-7.577a4.18 4.18 0 0 1 4.173-4.173h11.827a2.56 2.56 0 0 0 2.042-4.096 5.863 5.863 0 1 1 9.376 0 2.56 2.56 0 0 0 2.048 4.096h11.77a4.184 4.184 0 0 1 4.204 4.173V39.91a2.561 2.561 0 0 0 1.415 2.285c.354.182.747.276 1.145.276a2.56 2.56 0 0 0 1.536-.519A5.855 5.855 0 1 1 82.865 52.5h-.026Z"/></svg>
